X: 5838
T: Calles De Medellin
R: reel
M: 4/4
K: Gmajor
|:GBdG BdGB|AGAB AD D2|GBdG BdGB|cBAG ADBD|
GBdG BdGB|AGAB cBAG|AD D2 BD D2|AGAB G3A:|
|:BAGA AD D3|cBAB BD D2|BAGA AD D2|ADBD cDBD|
BAGA AD D2|cBAB BD D2|E3D GBdB|AGAB G3A:|

